X:1
T:James Gibb editions
T:Psalm 5 (Becker) - Schütz
%%score [ ( 1 2 ) ( 3 4 ) ]
L:1/8
Q:1/4=100
M:2/2
K:F
V:1 treble nm="Soprano Alto"
V:2 treble 
V:3 bass nm="Tenor Bass"
V:4 bass 
V:1
"^Cornelius Becker\n(1561-1604)""^Heinrich Schütz\n(1585-1672)" e4 f4 | c2 d4 A2 | %2
w: ~Herr, hör,|was ich will|
w: ver- schmäh|doch mei- ne|
"^Psalm 5, SWV 101" c2 B2 A4 | A4 B4 | c2 d4 d2 | ^c4 d4 :|[M:2/2] f4 g4 | e2 f4 e2 | d2 d2 c4 | %9
w: bit- ten dich,|merk auf|mein Wort gar|e- ben,|mein Kö-|nig und mein|Her- re Gott,|
w: Re- de nicht,|ver- nimm|mein G'schrei da-|ne- ben,||||
 c4 c4 | e2 f4 f2 | e4 d4 | z2 B4 d2 | c4 B4 | z2 d2 d2 f2 | f2 e2 f4 | e4 g4 | f2 e4 d2 | e8 | %19
w: früh wollst|mein Stimm er-|hö- ren,|mich ge-|wäh- ren,|früh ruf ich|in der Not,|merk auf,|mein lie- ber|Her-|
w: ||||||||||
 d8 |] %20
w: re.|
w: |
V:2
 A4 A4 | F2 F4 D2 | E2 G2 ^F4 | ^F4 G4 | A2 B4 B2 | A4 A4 :|[M:2/2] d4 d4 | c2 c4 c2 | =B2 B2 c4 | %9
 G4 A4 | G2 F4 A2 | A4 A4 | z2 G4 F2 | F4 F4 | z2 B2 B2 A2 | c2 G2 A4 | G4 B4 | A2 A4 F2 | A8 | %19
 A8 |] %20
V:3
 ^C4 D4 | A,2 B,4 F,2 | A,2 D2 D4 | D4 D4 | F2 F4 G2 | E4 D4 :|[M:2/2] A4 G4 | G2 A4 G2 | %8
 G2 G2 G4 | E4 F4 | C2 A,4 D2 | ^C4 D4 | %12
"^2. Denn du bist nicht ein solcher Gott, dem gottlos Wesen g'falle,\nvor dir bleibt nicht der Bösen Rott, die Ruhmredigen alle\nvor dein Augen bestehen nicht, du bringst um all', die lügen\nund betrügen, wer falsch, blutgierig ist, wird seinen Lohn wohl kriegen.\n\n3. Ich aber will in's heilig Haus durch deine Gnade treten,\ndein Dienst im Glauben richten aus, in deiner Furcht anbeten,\nleit mich in deiner G'rechtigkeit um meiner Feinde willen,\nsie zu stillen, dein Weg vor mir bereit, mit Gnaden mich erfülle.\n\n5. Die Gläubigen lass freuen sich, die Hoffnung zu dir haben,\nlaß sie dich rühmen ewiglich, die du beschirmst mit Gnaden,\nsei du selbst derer Freud und Wonn', die deinen Namen lieben,\ndein Lob üben, dein Gnad sei Schild und Krön', dass sie kein Lein betrübe." z2 G,4 B,2 | %13
 A,4 B,4 | z2 F2 F2 D2 | G2 C2 C4 | C4 D4 | D2 ^C4 D2 | (D4 ^C4) | D8 |] %20
V:4
 A,4 D,4 | F,2 B,,4 D,2 | A,,2 B,,2 D,4 | D,4 G,4 | F,2 B,4 G,2 | A,4 D,4 :|[M:2/2] D4 =B,4 | %7
 C2 A,4 C2 | G,2 G,2 C,4 | C,4 F,4 | E,2 D,4 F,2 | A,4 D,4 | z2 _E,4 B,,2 | F,4 B,,4 | %14
 z2 B,2 B,2 D2 | C2 C2 F,4 | C4 G,4 | D,2 A,4 B,2 | A,8 | D,8 |] %20

